packages/astro-components-stencil/src/icons/wifi-tethering.svg

<svg width="24" height="24" viewBox="0 0 24 24" fill="none" xmlns="http://www.w3.org/2000/svg">
<path fill-rule="evenodd" clip-rule="evenodd" d="M2.04999 12.0299C2.47999 7.39995 6.20999 3.58995 10.83 3.06995C16.87 2.37995 22 7.08995 22 12.9999C22 16.2999 20.4 19.2199 17.93 21.0399C17.45 21.3899 16.77 21.2499 16.47 20.7299C16.22 20.2899 16.33 19.7399 16.73 19.4399C18.71 17.9799 20 15.6499 20 12.9999C20 8.27995 15.91 4.50995 11.09 5.05995C7.56999 5.44995 4.64999 8.23995 4.10999 11.7399C3.61999 14.8899 4.98999 17.7499 7.26999 19.4399C7.66999 19.7399 7.77999 20.2999 7.52999 20.7299C7.22999 21.2399 6.54999 21.3899 6.06999 21.0399C3.36999 19.0499 1.69999 15.7299 2.04999 12.0299ZM18 12.9999C18 9.43995 14.89 6.59995 11.25 7.04995C8.62999 7.36995 6.46999 9.45995 6.06999 12.0699C5.73999 14.2199 6.55999 16.1799 7.99999 17.4699C8.47999 17.8999 9.22999 17.7999 9.55999 17.2399L9.56999 17.2299C9.80999 16.8099 9.70999 16.2999 9.34999 15.9699C8.31999 15.0399 7.75999 13.5999 8.12999 12.0299C8.45999 10.6099 9.60999 9.45995 11.03 9.11995C13.65 8.48995 16 10.4699 16 12.9999C16 14.1799 15.48 15.2299 14.67 15.9599C14.31 16.2799 14.2 16.7999 14.44 17.2199L14.45 17.2299C14.76 17.7599 15.48 17.9199 15.95 17.5099C17.2 16.4099 18 14.7999 18 12.9999ZM12 10.9999C10.9 10.9999 9.99999 11.8999 9.99999 12.9999C9.99999 14.0999 10.9 14.9999 12 14.9999C13.1 14.9999 14 14.0999 14 12.9999C14 11.8999 13.1 10.9999 12 10.9999Z" fill="black"/>
</svg>

<svg xmlns="http://www.w3.org/2000/svg" viewBox="0 0 24 24"><g xmlns="http://www.w3.org/2000/svg" id="wifi-tethering" fill-rule="nonzero">
            <path d="M12 11c-1.1 0-2 .9-2 2s.9 2 2 2 2-.9 2-2-.9-2-2-2zm6 2a6 6 0 00-6.75-5.95c-2.62.32-4.78 2.41-5.18 5.02-.33 2.15.49 4.11 1.93 5.4.48.43 1.23.33 1.56-.23l.01-.01c.24-.42.14-.93-.22-1.26a3.997 3.997 0 01-1.22-3.94 3.954 3.954 0 012.9-2.91A3.999 3.999 0 0116 13c0 1.18-.52 2.23-1.33 2.96-.36.32-.47.84-.23 1.26l.01.01c.31.53 1.03.69 1.5.28A5.996 5.996 0 0018 13zm-7.17-9.93c-4.62.52-8.35 4.33-8.78 8.96a9.966 9.966 0 004.02 9.01c.48.35 1.16.2 1.46-.31.25-.43.14-.99-.26-1.29-2.28-1.69-3.65-4.55-3.16-7.7.54-3.5 3.46-6.29 6.98-6.68C15.91 4.51 20 8.28 20 13c0 2.65-1.29 4.98-3.27 6.44-.4.3-.51.85-.26 1.29.3.52.98.66 1.46.31A9.96 9.96 0 0022 13c0-5.91-5.13-10.62-11.17-9.93z"/>
        </g></svg>
